Newaita-dark/actions/24/zoom-next.svg

<?xml version="1.0" encoding="UTF-8"?>
<svg xmlns="http://www.w3.org/2000/svg" xmlns:xlink="http://www.w3.org/1999/xlink" width="24pt" height="24pt" viewBox="0 0 24 24" version="1.1">
<g id="surface1">
<path style=" stroke:none;fill-rule:nonzero;fill:rgb(47.058824%,56.470591%,61.176473%);fill-opacity:1;" d="M 2.480469 1.179688 C 1.65625 1.179688 0.992188 1.84375 0.992188 2.667969 L 0.992188 5.148438 L 2.480469 5.148438 L 2.480469 3.660156 C 2.480469 3.109375 2.921875 2.667969 3.472656 2.667969 L 4.960938 2.667969 L 4.960938 1.179688 Z M 18.851562 1.179688 L 18.851562 2.667969 L 20.339844 2.667969 C 20.890625 2.667969 21.335938 3.109375 21.335938 3.660156 L 21.335938 5.148438 L 22.824219 5.148438 L 22.824219 2.667969 C 22.824219 1.84375 22.160156 1.179688 21.335938 1.179688 Z M 0.992188 19.039062 L 0.992188 21.523438 C 0.992188 22.347656 1.65625 23.011719 2.480469 23.011719 L 4.960938 23.011719 L 4.960938 21.523438 L 3.472656 21.523438 C 2.921875 21.523438 2.480469 21.078125 2.480469 20.53125 L 2.480469 19.039062 Z M 21.335938 19.039062 L 21.335938 20.53125 C 21.335938 21.078125 20.890625 21.523438 20.339844 21.523438 L 18.851562 21.523438 L 18.851562 23.011719 L 21.335938 23.011719 C 22.160156 23.011719 22.824219 22.347656 22.824219 21.523438 L 22.824219 19.039062 Z M 21.335938 19.039062 "/>
<path style=" stroke:none;fill-rule:evenodd;fill:rgb(74.117649%,74.117649%,74.117649%);fill-opacity:1;" d="M 9.820312 6.136719 C 9.417969 6.136719 9.058594 6.378906 8.90625 6.753906 C 8.753906 7.125 8.84375 7.550781 9.132812 7.832031 L 13.394531 12.09375 L 9.132812 16.359375 C 8.878906 16.605469 8.777344 16.972656 8.867188 17.316406 C 8.957031 17.660156 9.226562 17.929688 9.570312 18.019531 C 9.914062 18.109375 10.28125 18.007812 10.53125 17.753906 L 15.492188 12.792969 C 15.875 12.40625 15.875 11.78125 15.492188 11.398438 L 10.53125 6.433594 C 10.34375 6.242188 10.085938 6.136719 9.820312 6.136719 Z M 9.820312 6.136719 "/>
</g>
</svg>

<svg xmlns="http://www.w3.org/2000/svg" width="32" height="32" viewBox="0 0 24 24"><path d="M2.48 1.18c-.824 0-1.488.664-1.488 1.488v2.48H2.48V3.66c0-.55.442-.992.993-.992H4.96V1.18zm16.372 0v1.488h1.488c.55 0 .996.441.996.992v1.488h1.488v-2.48c0-.824-.664-1.488-1.488-1.488zM.992 19.04v2.483c0 .825.664 1.489 1.488 1.489h2.48v-1.489H3.474a.991.991 0 0 1-.993-.992V19.04zm20.344 0v1.491a.994.994 0 0 1-.996.992h-1.488v1.489h2.484c.824 0 1.488-.664 1.488-1.489V19.04zm0 0" fill="#78909c"/><path d="M9.82 6.137a.984.984 0 0 0-.914.617.983.983 0 0 0 .227 1.078l4.262 4.262-4.262 4.265a.987.987 0 1 0 1.398 1.395l4.961-4.961a.99.99 0 0 0 0-1.395l-4.96-4.964a.996.996 0 0 0-.712-.297zm0 0" fill-rule="evenodd" fill="#bdbdbd"/></svg>
